X: 1
T: The Fortification Jig
C: Eric Allan
N: for the birthday of fishing friend Iain Sharpe
R: jig
Z: 2005 John Chambers <jc:trillian.mit.edu>
M: 6/8
L: 1/8
K: D
A \
| "D"DFA AFA | "G"BGB "A7"(A2e) | "D"fdf (g2f) | "Em"(e2E) "A7"EFE \
| "D"DFA AFA | "G"BGB "A7"Ade | "D"fag "A7"(f2e) | "D"fdd d2 :|
f \
| "D"a3 afd | "Em"gfg (e2g) | "D"fdf "Bm"(g2f) | "Em"efe "A7"efg \
| "D"afd AFD | "G"GBd "Em"(g2e) | "D"fef "A7"gec | "D"edd d2 |]
f \
| "D"a3 afd | "Em"gfg (e2g) | "D"fdf "Bm"(g2f) | "Em"(e2E) "A7"EFE \
| "D"DFA AFA | "G"BGB (A2g) | "D"faf "A7"gec | "D"edd d2 |]
